!!!!SEGMENT: pl-wtm--r-1342_stefani-jozef--mazur-g-nr-1.krn
!!!cenid: 18xx:1847
!!!COM: Stefani, Józef
!!!COM-rismID: pe30024097
!!!CDT: 1800/04/16-1876/03/19
!!!CNT: Polish
!!!OTL: Mazur G nr 1
!!!PDT:
!!!AGN: Secular; Mazurka
!!!SMS-siglum: PL-Wtm
!!!SMS-shelfmark: R 1342
!!!SMS-shelfwork: W
!!!SMS-variant:
!!!SMS-altvar:
!!!NIFC-rismSourceID: 1001119394
!!!NIFC-rismChildID: 1001119394
!!!NIFC-islandoraID: pl-wtm:25246
!!!URL-pdf-islandora: https://repozytorium.nifc.pl/islandora/object/pl-wtm%3A25246/datastream/PDF/view
!!!URL-scan: https://polish.musicsources.pl/pl/lokalizacje/galeria/rekopisy/6194 @EN{Scan on Polish Music Sources Website} @PL{Skany w portalu Dziedzictwo Muzyki Polskiej w otwartym dostępie}
!!!ONB-nifc: UWAGA: wstęp + Mazur razem
!!!OMD: All..o mod to
!!!AIN: 1 empty
!!!key:
**kern	**kern	**dynam
*part1	*part1	*part1
*staff2	*staff1	*
*Iempty	*Iempty	*
*I"Wstęp	*I"Wstęp	*
*clefF4	*clefG2	*
*k[f#]	*k[f#]	*
*C:	*C:	*
*M3/8	*M3/8	*
*>[A,B,C,C,D,E,E]	*>[A,B,C,C,D,E,E]	*>[A,B,C,C,D,E,E]
=1	=1	=1
*>A	*>A	*>A
!	!	!LO:DY:rj
8d 8A 8F# 8D\	8ddd 8ff# 8dd\	f
8r	8r	.
8r	8r	.
=2	=2	=2
8d 8B 8G\	8bb 8gg 8dd\	.
8r	8r	.
8r	8r	.
=3	=3	=3
*^	*	*
4.C#X/	8C#\L	16.aa\LL	.
.	.	32bb\JJk	.
.	8A 8G 8E\	8aa\L	.
.	8AJ 8G 8E\	8ee\J	.
=4	=4	=4	=4
.	.	(8qgg/	.
4D/	8D\L	16.ff#\LL)	.
.	.	32ee'\JK	.
.	8AJ 8F#\	8dd'\J	.
8r	8ryy	8r	.
*v	*v	*	*
!!LO:LB:g=original
=5	=5	=5
!	!LO:SIC:v:n=2:s=8cc#	!
8A#X 8AA#X/	8ff# 8cc 8f#\	.
8r	8r	.
8r	8r	.
=6	=6	=6
8B 8BB\	8dd 8b 8f#\	.
8r	8r	.
8E 8EE/	8ee 8b 8g\	.
=7	=7	=7
*^	*	*
4.AA/	8AA\L	16.a/LL	.
.	.	32b/JJk	.
.	8G 8E\	8cc#X/L	.
.	8GJ 8E\	8a/J	.
*v	*v	*	*
=8	=8	=8
8F# 8D\	8dd\	.
!	!LO:TX:b:i:t=Attacca\nMazur.	!
4F# 4FF#;/	4ccn 4a 4d;/	.
!!LO:PB:g=original
==9	==9	==9
!!!OMD: Mazur.
*>B	*>B	*>B
*M3/8	*M3/8	*
!LO:TX:t=P:problem=mixed beam	!	!LO:DY:rj
8GG/L	16.d/LL	p
.	32e/JJk	.
8B 8G 8D\	8d/L	.
8BJ 8G 8D\	8g/J	.
=10	=10	=10
8DD/	16.f#/LL	.
.	32g/JJk	.
8cL 8A 8F# 8D\	8a/L	.
8cJ 8A 8F# 8D\	8d/J	.
=11	=11	=11
8GG/	16.d/LL	.
.	32e/JJk	.
8BL 8G 8D\	16d/LL	.
.	16b/	.
8BJ 8G 8D\	16a/	.
.	16g/JJ	.
=12	=12	=12
8DD/	16.f#/LL	.
.	32g/JJk	.
.	(8qb/	.
8cL 8A 8F# 8D\	8a/L)	.
8cJ 8A 8F# 8D\	8d/J	.
=13	=13	=13
*^	*	*
4.GG/	8GG\L	16.ddLL 16.b\	.
.	.	32bJJk 32g\	.
.	8G\	8eeL 8dd 8cc\	.
.	8G\J	8ddJ 8b\	.
*v	*v	*	*
!!LO:LB:g=original
=14	=14	=14
*	*^	*
8F#\L	16.dd/LL	8a\	.
.	32cc/JJk	.	.
8G\	8bL 8g/	8ryy	.
8D\J	8aJ 8f#/	8ryy	.
*	*v	*v	*
=15	=15	=15
16.E/LL	16.gLL 16.e/	.
32BB/JJk	32f#JJk 32d#X/	<
8E/L	8gL 8e/	.
8C/J	8gJ 8e/	[ f
=16	=16	=16
16.BB/LL	16.bLL 16.f# 16.d#X/	.
32AA/JJk	32ccJJk 32f# 32d#/	.
8BB/	8b 8f# 8d#/	.
8Dn 8DDn/	8ddn 8dn^/	.
=17	=17	=17
*^	*	*
!	!	!LO:TUP:b	!
4.D/	8D\L	(<24f#/LL	.
.	.	24a/	.
.	.	24cc/JJ	.
.	8c 8A 8F#\	8ee\L)	.
.	8cJ 8A 8F#\	(16dd\L	.
.	.	16cc\JJ)	.
*v	*v	*	*
=18	=18	=18
8GG/	(24b\LL	.
.	24dd\	.
.	24gg\JJ	.
8BL 8G 8D\	8bb\L)	.
8BJ 8G 8D\	8ddd'\J	.
!!LO:LB:g=original
=19	=19	=19
*^	*	*
4.D/	8D\L	(16eee\LL	.
.	.	16ddd\JJ)	.
.	8c 8A\	(16bb\LL	.
.	.	16ccc\JJ)	.
.	8cJ 8A\	(16ee\LL	.
.	.	16ff#\JJ)	.
*v	*v	*	*
=20	=20	=20
8GG/	16gg'\LL	.
.	(16cc#X\	.
8BL 8G 8D\	16dd\)	.
.	(16a#X\	.
8BJ 8G 8D\	16b\)	.
.	16g'\JJ	.
=21	=21	=21
*^	*	*
!	!	!LO:TUP:b:problem=klamra łukowa	!
4.D/	8D\L	24f#/LL	.
.	.	24a/	.
.	.	24cc/JJ	.
.	8c 8A 8F#\	8ee\L	.
.	8cJ 8A 8F#\	(16dd\L	.
.	.	16cc\JJ)	.
*v	*v	*	*
=22	=22	=22
8GG/	(24b\LL	.
.	24dd\	.
.	24gg\JJ	.
8BL 8G 8D\	8bb\L)	.
8BJ 8G 8D\	8ddd'\J	.
=23	=23	=23
*^	*	*
4.C/	8C\L	(16fff#\LL	.
.	.	16eee\JJ)	.
.	8AJ 8E\	(16bb\LL	.
.	.	16ccc\JJ)	.
.	8c 8A 8D\	(16aa\LL	.
.	.	16ff#\JJ)	.
*v	*v	*	*
!!LO:LB:g=original
=24	=24	=24
8B 8G\	(32aa\KLL	.
.	16gg\JJ)	.
.	32r	.
4d 4B 4G\	4g/	.
=25!|:	=25!|:	=25!|:
*>C	*>C	*>C
*^	*	*
4.C#X/	8C#\L	16.bLL 16.g/	mf
.	.	32bJJk 32g/	.
.	8A\	8aL 8f#/	.
.	8A\J	8gJ 8e/	.
=26	=26	=26	=26
4.D/	8D\L	16f#LL 16d/	.
.	.	16a 16f#/	.
.	8A 8F#\	16dd 16b/	.
.	.	16ff#J 16dd/	.
.	8AJ 8F#\	8aaJ 8ff#/	.
=27	=27	=27	=27
4.AA/	8AA\L	(16bbLL 16gg^<\	f
.	.	16aaJJ 16ff#\)	.
.	8A\	(16gg#XLL 16ee#X^<\	.
.	.	16aaJJ 16ff#\)	.
.	8A\J	(16ggnLL 16een^<\	.
.	.	16eeJJ 16cc#X\)	.
=28	=28	=28	=28
4.D/	8D\L	16ff#LL 16dd'\	.
.	.	(16cc#X\	.
.	8A 8F#\	16dd\)	.
.	.	16b\J	.
.	8AJ 8F#\	8a\J	.
!!LO:LB:g=original
=29	=29	=29	=29
4.C#X/	8C#\L	16.bLL 16.g/	mf
.	.	32bJJk 32g/	.
.	8A\	8aL 8f#/	.
.	8A\J	8gJ 8e/	.
=30	=30	=30	=30
4.D/	8D\L	16f#LL 16d/	.
.	.	16a 16f#/	.
.	8A 8F#\	16dd 16b/	.
.	.	16ff#J 16dd/	.
.	8AJ 8F#'\	8aaJ 8ff#/	.
*v	*v	*	*
=31	=31	=31
8AA/	(16ccc^<\LL	f
.	16bb\JJ)	.
8AL 8G 8E 8C#X\	(16aa#X^<\LL	.
.	16bb\JJ)	.
8AJ 8G 8E 8C#\	(16gg^<\LL	.
.	16ee\JJ)	.
=32	=32	=32
*^	*	*
4.D/	8D\L	(16dd\LL	.
.	.	16cc#X\	.
.	8A 8F#\	16dd\	.
.	.	16ee\J)	.
.	8AJ 8F#\	8dd'\J	.
*v	*v	*	*
=33	=33	=33
8GG/	16.d/LL	p
!	!LO:N:vis=16	!
.	32e/JJk	.
8BL 8G 8D\	8d/L	.
8BJ 8G 8D\	8g/J	.
=34	=34	=34
!LO:TX:t=P:problem=mixed beam	!	!
8DD/L	16.f#/LL	.
.	32g/JJk	.
8c 8A 8F# 8D\	8a/L	.
8cJ 8A 8F# 8D\	8d/J	.
!!LO:LB:g=original
=35	=35	=35
8GG/	16.d/LL	.
.	32e/JJk	.
8BL 8G 8D\	16d/LL	.
.	16b/	.
.	(8qb/	.
8BJ 8G 8D\	16a/)	.
.	16g'/JJ	.
=36	=36	=36
8DD/	16.f#/LL	.
.	32g/JJk	.
.	(8qb/	.
8cL 8A 8F# 8D\	8a/L)	.
8cJ 8A 8F# 8D\	8d'/J	.
=37	=37	=37
*^	*	*
4.GG/	8GG\L	16.ddLL 16.b\	.
.	.	32bJJk 32g\	.
.	8G\	8eeL 8cc\	.
.	8G\J	8ddJ 8b\	.
*v	*v	*	*
=38	=38	=38
*	*^	*
8F#\L	16.dd/LL	8a\	.
.	32cc/JJk	.	.
8G\	8bL 8g/	8ryy	.
8D\J	8aJ 8f#/	8ryy	.
*	*v	*v	*
=39	=39	=39
16.E/LL	16.gLL 16.e/	.
32BB/JJk	32f#JJk 32d#X/	.
8E/L	8gL 8e/	.
8C/J	8aJ 8e/	.
=40	=40	=40
8D\	16.d/LL	.
.	32f#/JJk	.
8cL 8A 8D\	8aL 8f# 8d/	.
!	!LO:TX:b:i:t=fine	!
8BJ 8G\	8gJ 8d/;	.
!!LO:PB:g=original
=41:|!	=41:|!	=41:|!
!!!OMD: Trio
*>D	*>D	*>D
*k[]	*k[]	*
*M3/8	*M3/8	*
!	!	!LO:DY:rj
16.GLL 16.C\	16.eLL 16.c/	p
32A#XJJk 32G 32C\	32d#XJJk 32c/	.
8GL 8C\	8eL 8c/	.
8GJ 8C\	8eJ 8c/	.
=42	=42	=42
*^	*^	*
8A/L	4A 4C\	(8f/L	4c\	.
8G/J	.	8e/)	.	.
8F/	8F\	8a^/J	8f 8c\	.
*v	*v	*	*	*
=43	=43	=43	=43
*tremolo	*	*	*
!	!LO:TUP:b:problem=klamra łukowa, kropka zamiast numeru	!	!
8GL 8D 8GG\	24g/LL	8B\	f
.	24a/	.	.
.	24g/JJ	.	.
8G 8D 8GG\	8f/L	8B\L	.
8GJ 8D 8GG\	8d/J	8B\J	.
*Xtremolo	*	*	*
*	*v	*v	*
=44	=44	=44
8G 8C\	16.eLL 16.c/	.
.	32fJJk 32d/	.
4G 4C\	4g 4e/	.
.	.	p
=45	=45	=45
16.GLL 16.C\	16.eeLL 16.cc 16.g\	.
32F#XJJk 32C\	32dd#XJJk 32cc 32a\	.
8GL 8C\	8eeL 8cc 8g\	.
8GJ 8C\	8eeJ 8cc 8g\	.
!!LO:LB:g=original
=46	=46	=46
8AL 8C\	(8ffL 8cc 8f\	.
8GJ 8C\	8ee 8cc 8g\)	.
8F#X 8FF#X^>/	8aaJ 8dd#X 8cc'\	.
=47	=47	=47
*Xtuplet	*Xtuplet	*
24GLL 24GG'\	24ggLL 24ee 24cc'\	f
(24E\	(24ccc\	.
24C\JJ)	24eee\JJ	.
16GG/	16ggg\)	.
16r	16r	.
8G 8GG/	8bb 8gg 8ff 8dd\	.
=48	=48	=48
8C 8CC/	8ccc 8gg 8ee 8cc\	.
8c 8C\	8cc 8g 8e/	.
8r	8r	.
=49!|:	=49!|:	=49!|:
*>E	*>E	*>E
16.ELL 16.EE/	16.eeLL 16.b 16.g#X/	.
32BB/JJk	32dd#XJJk 32b 32a/	.
8EL 8EE/	8eeL 8b 8g#/	.
8EJ 8EE/	8bJ 8g#/	.
!!LO:LB:g=original
=50	=50	=50
*	*^	*
8D#X 8BB/	24ff#X/LL	8a\	.
.	24gg#X/	.	.
.	24ff#/JJ	.	.
4E 4EE/	4ee/	4g#X\	.
*	*v	*v	*
=51	=51	=51
*	*tuplet	*
!	!LO:TUP:a:problem=klamra łukowa	!
8A 8D#X 8BB\	24ff#X\LL	.
.	24gg#X\	.
.	24ff#\JJ	.
8G#XL 8E\	8ee'\L	.
.	(8qaa#X/	.
8G#J 8E\	8bb\J)	.
=52	=52	=52
!	!LO:TUP:a:problem=klamra łukowa	!
8A 8D#X 8BB\	24ff#X\LL	.
.	24gg#X\	.
.	24ff#\JJ	.
8G#X 8E\	8ee\	.
8r	16aa#X'\LL	.
.	16bb'\JJ	.
=53	=53	=53
*^	*	*
4.D#X/	8D#\L	16ccc'\LL	.
.	.	16bb'\JJ	.
!LO:SIC:v:n=3:s=8F#	!	!	!
.	8B 8A 8F\	8aa'\L	.
!LO:SIC:v:n=3:s=8F#	!	!	!
.	8BJ 8A 8F\	8ff#X'\J	.
=54	=54	=54	=54
4.E/	8E\L	16aa'\LL	.
.	.	16gg#X'\JJ	.
.	8B 8G\	8ee'\L	.
.	8BJ 8G\	8b'\J	.
*v	*v	*	*
!!LO:LB:g=original
=55	=55	=55
16.ALL 16.AA/	16.cc#XLL 16.a/	.
32FJJk 32FF/	32cc#JJk 32a/	.
!LO:TX:t=P:problem=mixed beam	!	!
8BL 8BB\	8bL 8g#X/	.
8BBJ 8BBB/	8dd#XJ 8b 8a 8f#X/	.
=56	=56	=56
8E 8EE/	8ee 8b 8g#X^<\	.
8D 8DD/	8ffn 8dd 8a^<\	.
8G 8GG\	8ggn 8b 8gn^<\	.
=57	=57	=57
!	!	!LO:DY:rj
16.GLL 16.C\	16.eLL 16.c/	p
32AJJk 32F#X 32C\	32d#XJJk 32c/	.
8GL 8C\	8eL 8c/	.
8GJ 8C\	8eJ 8c/	.
=58	=58	=58
*^	*^	*
(8A/L	4C\	(8f/L	4c\	.
8G/J)	.	8e/)	.	.
8F^</	8F\	8aJ 8f^/	8c\	.
*v	*v	*	*	*
!!LO:LB:g=original
=59	=59	=59	=59
*tremolo	*Xtuplet	*	*
!	!	!	!LO:DY:rj
8GL 8D 8GG\	(24g/LL	8B\	f
.	24a/	.	.
.	24g/JJ	.	.
8G 8D 8GG\	8f/L)	8B\L	.
8GJ 8D 8GG\	8d/J	8B\J	.
*Xtremolo	*	*	*
*	*v	*v	*
=60	=60	=60
8G 8C\	16.eLL 16.c/	.
.	32fJJk 32d/	.
4G 4C\	4g 4e/	.
=61	=61	=61
!	!	!LO:DY:rj
16.GLL 16.C\	16.eeLL 16.cc 16.g\	p
32F#XJJk 32C\	32dd#XJJk 32cc 32a\	.
8GL 8C\	8eeL 8cc 8g\	.
8GJ 8C\	8eeJ 8cc 8g\	.
=62	=62	=62
8AL 8C\	(8ffL 8cc 8f\	.
8G 8C\	8ee 8cc 8g\)	.
8F#XJ 8FF#X\	8aa^<J 8dd#X 8cc\|	.
=63	=63	=63
*tuplet	*tuplet	*
!LO:TUP:a	!LO:TUP:a	!LO:DY:rj
24GLL 24GG'\	(24ggLL 24ee 24cc'\	f
(24E\	24ccc\	.
24C\JJ)	24eee\JJ	.
16GG/	16ggg\)	.
16r	16r	.
8G 8GG\	8bb 8gg 8ff 8dd\	.
!!LO:LB:g=original
=64	=64	=64
8C 8CC/	8ccc 8gg 8ee 8cc\	.
8c 8C\	8cc 8g 8e/	.
8r	8r	.
=:|!	=:|!	=:|!
*-	*-	*-
!!!system-decoration: {(s1,s2)}
!!!RDF**kern: > = above
!!!RDF**kern: < = below
!!!RDF**kern: | = vertical stroke
!!!ENC: Marta Lawrence
!!!END: 2021-05-04
!!!ENC: Krzysztof Stępień
!!!END: 2021-04-10
!!!YEC: Copyright 2022 Narodowy Instytut Fryderyka Chopina (https://polishscores.org)
!!!YEM: License CC-BY-4.0 (https://creativecommons.org/licenses/by/4.0)
